source/img/icons/icon-linkedin.svg

<svg width="24" height="24" viewBox="0 0 24 24" fill="none" xmlns="http://www.w3.org/2000/svg">
<path d="M20.47 1.9999H3.53C3.33958 1.99725 3.1505 2.03214 2.97356 2.10258C2.79663 2.17302 2.6353 2.27762 2.4988 2.41041C2.36229 2.5432 2.25328 2.70158 2.17799 2.87651C2.1027 3.05143 2.06261 3.23947 2.06 3.4299V20.5699C2.06261 20.7603 2.1027 20.9484 2.17799 21.1233C2.25328 21.2982 2.36229 21.4566 2.4988 21.5894C2.6353 21.7222 2.79663 21.8268 2.97356 21.8972C3.1505 21.9676 3.33958 22.0025 3.53 21.9999H20.47C20.6604 22.0025 20.8495 21.9676 21.0264 21.8972C21.2034 21.8268 21.3647 21.7222 21.5012 21.5894C21.6377 21.4566 21.7467 21.2982 21.822 21.1233C21.8973 20.9484 21.9374 20.7603 21.94 20.5699V3.4299C21.9374 3.23947 21.8973 3.05143 21.822 2.87651C21.7467 2.70158 21.6377 2.5432 21.5012 2.41041C21.3647 2.27762 21.2034 2.17302 21.0264 2.10258C20.8495 2.03214 20.6604 1.99725 20.47 1.9999ZM8.09 18.7399H5.09V9.7399H8.09V18.7399ZM6.59 8.4799C6.17626 8.4799 5.77947 8.31554 5.48691 8.02298C5.19435 7.73043 5.03 7.33363 5.03 6.9199C5.03 6.50616 5.19435 6.10937 5.48691 5.81681C5.77947 5.52425 6.17626 5.3599 6.59 5.3599C6.80969 5.33498 7.03217 5.35675 7.24287 5.42378C7.45357 5.49081 7.64774 5.60159 7.81265 5.74886C7.97757 5.89613 8.10952 6.07657 8.19987 6.27838C8.29021 6.48018 8.33692 6.69879 8.33692 6.9199C8.33692 7.141 8.29021 7.35961 8.19987 7.56141C8.10952 7.76322 7.97757 7.94366 7.81265 8.09093C7.64774 8.23821 7.45357 8.34898 7.24287 8.41601C7.03217 8.48304 6.80969 8.50481 6.59 8.4799ZM18.91 18.7399H15.91V13.9099C15.91 12.6999 15.48 11.9099 14.39 11.9099C14.0527 11.9124 13.7242 12.0182 13.4488 12.2131C13.1735 12.408 12.9645 12.6826 12.85 12.9999C12.7717 13.2349 12.7378 13.4825 12.75 13.7299V18.7299H9.75C9.75 18.7299 9.75 10.5499 9.75 9.7299H12.75V10.9999C13.0225 10.527 13.4189 10.1374 13.8964 9.8731C14.374 9.60878 14.9146 9.47975 15.46 9.4999C17.46 9.4999 18.91 10.7899 18.91 13.5599V18.7399Z" fill="white"/>
</svg>

<svg width="24" height="24" fill="none" xmlns="http://www.w3.org/2000/svg"><path d="M20.47 2H3.53a1.45 1.45 0 00-1.47 1.43v17.14A1.45 1.45 0 003.53 22h16.94a1.451 1.451 0 001.47-1.43V3.43A1.45 1.45 0 0020.47 2zM8.09 18.74h-3v-9h3v9zM6.59 8.48a1.56 1.56 0 010-3.12 1.57 1.57 0 110 3.12zm12.32 10.26h-3v-4.83c0-1.21-.43-2-1.52-2A1.65 1.65 0 0012.85 13a1.998 1.998 0 00-.1.73v5h-3v-9h3V11a3 3 0 012.71-1.5c2 0 3.45 1.29 3.45 4.06v5.18z" fill="#fff"/></svg>
